X: 11
T: The Royal Navy
%R: jig
B: "Twenty Four Favourite Dances for the Year 1779", Thomas Straight, ed. p.6 #1
F: http://www.vwml.org/browse/browse-collections-dance-tune-books/browse-straights1779
Z: 2014 John Chambers <jc:trillian.mit.edu>
M: 6/8
L: 1/8
K: G
|:\
GB,D dBG | ADF ecA | cde ABc | dBG FED |\
ECE cAF | DB,D BGD | EcB AGF | G3 G3 :|
|:\
FAc Ace | dBG FED | EFG ABc | ABG AFD |\
cde ABc | EFG B,CD | CcB AGF | G3 G3 :|
%%begintext align
%% The 1st Cu: cast off 2d Cu: Cast up again Cross over
%% 1 Cu: Lead thro' top and Cast off hands 6 round
%% and Allmand
%%endtext

%%sep 1 1 500
%%sep 1 1 500
